X:12071
%15179
T:Sean Sa Ceo
R:Reel
S:Kevin Burke, London (fiddle)
D:"The Pure Drop"
M:4/4
Z:Bernie Stocks
K:C
cB | (3AcA Gc ADEG | AcAE Gz{G}ED | EAAG AB{c}BA | Ec{d}cA GECE |
A2Gc AD~D2 | [A3D3]E G2ED | [E2A2] (3.A.A.A ABcA | EGcA GECE ||
FDDC [D3
